src/sprite/office.svg

<?xml version="1.0" encoding="utf-8"?>
<!-- Generator: Adobe Illustrator 24.0.0, SVG Export Plug-In . SVG Version: 6.00 Build 0)  -->
<svg version="1.1" id="Layer_1" xmlns="http://www.w3.org/2000/svg" xmlns:xlink="http://www.w3.org/1999/xlink" x="0px" y="0px"
	 viewBox="0 0 45 35" style="enable-background:new 0 0 45 35;" xml:space="preserve">
<style type="text/css">
	.st0{fill:none;stroke:#252525;stroke-linecap:round;stroke-linejoin:round;stroke-miterlimit:10;}
</style>
<g>
	<path class="st0" d="M0.5,34.5h44"/>
	<path class="st0" d="M34.5,4.5v-4h-24v4"/>
	<path class="st0" d="M42.5,4.5h-40v30h40V4.5z"/>
	<path class="st0" d="M2.5,10.5h40"/>
	<path class="st0" d="M2.5,16.5h40"/>
	<path class="st0" d="M2.5,22.5h40"/>
	<path class="st0" d="M2.5,28.5h40"/>
	<path class="st0" d="M10.5,34.5v-30"/>
	<path class="st0" d="M34.5,34.5v-30"/>
	<path class="st0" d="M26.5,28.5v-24"/>
	<path class="st0" d="M18.5,28.5v-24"/>
</g>
</svg>

<svg width="45" height="35" viewBox="0 0 45 35" fill="none" xmlns="http://www.w3.org/2000/svg">
<path d="M0.5 34.5H44.5" stroke="#252525" stroke-miterlimit="10" stroke-linecap="round" stroke-linejoin="round"/>
<path d="M34.5 4.5V0.5H10.5V4.5" stroke="#252525" stroke-miterlimit="10" stroke-linecap="round" stroke-linejoin="round"/>
<path d="M42.5 4.5H2.5V34.5H42.5V4.5Z" stroke="#252525" stroke-miterlimit="10" stroke-linecap="round" stroke-linejoin="round"/>
<path d="M2.5 10.5H42.5" stroke="#252525" stroke-miterlimit="10" stroke-linecap="round" stroke-linejoin="round"/>
<path d="M2.5 16.5H42.5" stroke="#252525" stroke-miterlimit="10" stroke-linecap="round" stroke-linejoin="round"/>
<path d="M2.5 22.5H42.5" stroke="#252525" stroke-miterlimit="10" stroke-linecap="round" stroke-linejoin="round"/>
<path d="M2.5 28.5H42.5" stroke="#252525" stroke-miterlimit="10" stroke-linecap="round" stroke-linejoin="round"/>
<path d="M10.5 34.5V4.5" stroke="#252525" stroke-miterlimit="10" stroke-linecap="round" stroke-linejoin="round"/>
<path d="M34.5 34.5V4.5" stroke="#252525" stroke-miterlimit="10" stroke-linecap="round" stroke-linejoin="round"/>
<path d="M26.5 28.5V4.5" stroke="#252525" stroke-miterlimit="10" stroke-linecap="round" stroke-linejoin="round"/>
<path d="M18.5 28.5V4.5" stroke="#252525" stroke-miterlimit="10" stroke-linecap="round" stroke-linejoin="round"/>
</svg>
